SF_Symbols/grid.svg

<?xml version="1.0" encoding="UTF-8"?>
<svg xmlns="http://www.w3.org/2000/svg" xmlns:xlink="http://www.w3.org/1999/xlink" width="24" height="24" viewBox="0 0 24 24" version="1.1">
<g id="surface1">
<path style=" stroke:none;fill-rule:nonzero;fill:rgb(100%,100%,100%);fill-opacity:1;" d="M 7.675781 23.613281 C 7.941406 23.613281 8.152344 23.53125 8.308594 23.367188 C 8.472656 23.203125 8.554688 22.976562 8.554688 22.6875 L 8.554688 2.34375 C 8.554688 2.054688 8.472656 1.828125 8.308594 1.664062 C 8.152344 1.492188 7.941406 1.40625 7.675781 1.40625 C 7.394531 1.40625 7.175781 1.492188 7.019531 1.664062 C 6.863281 1.828125 6.785156 2.054688 6.785156 2.34375 L 6.785156 22.6875 C 6.785156 22.976562 6.863281 23.203125 7.019531 23.367188 C 7.175781 23.53125 7.394531 23.613281 7.675781 23.613281 Z M 16.265625 23.613281 C 16.53125 23.613281 16.742188 23.53125 16.898438 23.367188 C 17.0625 23.203125 17.144531 22.976562 17.144531 22.6875 L 17.144531 2.34375 C 17.144531 2.054688 17.0625 1.828125 16.898438 1.664062 C 16.742188 1.492188 16.53125 1.40625 16.265625 1.40625 C 15.984375 1.40625 15.765625 1.492188 15.609375 1.664062 C 15.453125 1.828125 15.375 2.054688 15.375 2.34375 L 15.375 22.6875 C 15.375 22.976562 15.453125 23.203125 15.609375 23.367188 C 15.765625 23.53125 15.984375 23.613281 16.265625 23.613281 Z M 1.605469 17.601562 L 22.394531 17.601562 C 22.683594 17.601562 22.910156 17.523438 23.074219 17.367188 C 23.246094 17.203125 23.332031 16.984375 23.332031 16.710938 C 23.332031 16.4375 23.246094 16.222656 23.074219 16.066406 C 22.910156 15.910156 22.683594 15.832031 22.394531 15.832031 L 1.605469 15.832031 C 1.316406 15.832031 1.085938 15.910156 0.914062 16.066406 C 0.75 16.222656 0.667969 16.4375 0.667969 16.710938 C 0.667969 16.984375 0.75 17.203125 0.914062 17.367188 C 1.085938 17.523438 1.316406 17.601562 1.605469 17.601562 Z M 1.605469 9.234375 L 22.394531 9.234375 C 22.683594 9.234375 22.910156 9.15625 23.074219 9 C 23.246094 8.84375 23.332031 8.628906 23.332031 8.355469 C 23.332031 8.074219 23.246094 7.855469 23.074219 7.699219 C 22.910156 7.542969 22.683594 7.464844 22.394531 7.464844 L 1.605469 7.464844 C 1.316406 7.464844 1.085938 7.542969 0.914062 7.699219 C 0.75 7.855469 0.667969 8.074219 0.667969 8.355469 C 0.667969 8.628906 0.75 8.84375 0.914062 9 C 1.085938 9.15625 1.316406 9.234375 1.605469 9.234375 Z M 1.605469 9.234375 "/>
</g>
</svg>

<svg xmlns="http://www.w3.org/2000/svg" width="24" height="24"><path style="stroke:none;fill-rule:nonzero;fill:#fff;fill-opacity:1" d="M7.676 23.613c.265 0 .476-.082.633-.246.164-.164.246-.39.246-.68V2.345c0-.29-.082-.516-.246-.68-.157-.172-.368-.258-.633-.258-.281 0-.5.086-.656.258-.157.164-.235.39-.235.68v20.343c0 .29.078.516.235.68.156.164.375.246.656.246Zm8.59 0c.265 0 .476-.082.632-.246.165-.164.247-.39.247-.68V2.345c0-.29-.082-.516-.247-.68-.156-.172-.367-.258-.632-.258-.282 0-.5.086-.657.258-.156.164-.234.39-.234.68v20.343c0 .29.078.516.234.68.157.164.375.246.657.246Zm-14.66-6.011h20.789c.289 0 .515-.079.68-.235.171-.164.257-.383.257-.656s-.086-.488-.258-.645c-.164-.156-.39-.234-.68-.234H1.606c-.289 0-.52.078-.69.234-.165.157-.247.372-.247.645s.082.492.246.656c.172.156.402.235.691.235Zm0-8.368h20.789c.289 0 .515-.078.68-.234.171-.156.257-.371.257-.645 0-.28-.086-.5-.258-.656-.164-.156-.39-.234-.68-.234H1.606c-.289 0-.52.078-.69.234-.165.156-.247.375-.247.656 0 .274.082.489.246.645.172.156.402.234.691.234Zm0 0"/></svg>
